img/4-5colaboradores.svg

<svg fill="none" height="73" viewBox="0 0 69 73" width="69" xmlns="http://www.w3.org/2000/svg"><g fill="#fff"><path d="m55.7333 6.07574c.9007 0 1.7812.26715 2.53.76764.7489.5005 1.3325 1.21186 1.677 2.0441.3445.83223.4344 1.74792.2584 2.63132-.176.8833-.6101 1.6946-1.2473 2.3312-.6372.6367-1.4489 1.07-2.3324 1.2452s-1.7991.0845-2.631-.2608c-.832-.3452-1.5428-.9295-2.0426-1.6788s-.7662-1.63-.7654-2.5307c.0022-1.20659.4827-2.36303 1.3363-3.2158.8535-.85278 2.0104-1.33227 3.217-1.33336zm0 12.13786c1.5009 0 2.9681-.4451 4.216-1.2789 1.248-.8339 2.2206-2.0191 2.795-3.4058.5744-1.3866.7247-2.9125.4319-4.38453-.2929-1.47207-1.0156-2.82425-2.0769-3.88555s-2.4135-1.78406-3.8856-2.07687c-1.472-.29281-2.9979-.14253-4.3845.43184-1.3867.57438-2.5719 1.54704-3.4057 2.795-.8339 1.24796-1.279 2.71516-1.279 4.21611.0022 2.0119.8024 3.9409 2.2251 5.3636s3.3517 2.2229 5.3637 2.2251z"/><path d="m68.9444 43.4435-1.9455-15.5477c-.2303-1.8336-1.1214-3.5203-2.5063-4.744-1.3849-1.2236-3.1686-1.9002-5.0166-1.9028h-7.4942c-.8614.0021-1.7159.1538-2.5254.4484-.3621.1468-.6536.4276-.8139.7839s-.1769.7607-.0466 1.129c.1304.3683.3978.6722.7465.8483.3488.1762.752.211 1.1258.0974.4854-.1762.9973-.268 1.5136-.2715h7.4942c1.1102-.0007 2.1825.4038 3.0155 1.1376.8331.7339 1.3696 1.7466 1.5089 2.848l1.9414 15.5477c.0282.2134.0103.4304-.0523.6364s-.1686.3962-.3108.5579-.3173.2911-.5136.3795-.4093.1338-.6246.1331h-1.1146c-.3836-.0009-.7533.1438-1.0343.4049-.2809.2611-.4523.6192-.4794 1.0018l-1.419 19.8335h-9.3204l-1.0899-15.2844c-.01-.2018-.0602-.3995-.1475-.5816-.0874-.1822-.2103-.345-.3615-.4791-.1511-.134-.3275-.2365-.5188-.3015s-.3936-.0911-.5951-.0769c-.2015.0143-.3982.0686-.5784.1598-.1803.0913-.3405.2175-.4713.3715s-.2295.3325-.2904.5251c-.061.1926-.0828.3954-.0643.5966l1.1928 16.6911c.0289.3823.2007.7397.4812 1.0011.2804.2614.649.4077 1.0324.4097h12.1379c.3828-.0001.7515-.1453 1.0316-.4063s.4508-.6185.4779-1.0004l1.419-19.85c.6186-.0417 1.2223-.2092 1.7739-.4923.5516-.283 1.0397-.6757 1.4344-1.1539.3946-.4782.6876-1.0319.8608-1.6272.1733-.5953.2233-1.2198.1469-1.8351"/><path d="m20.5993 50.4186c-.1993-.0163-.3999.0076-.5898.0702-.19.0625-.3655.1625-.5161.294-.1507.1315-.2735.2919-.3612.4716-.0877.1798-.1385.3753-.1493.575l-1.0694 14.9347h-9.31628l-1.41081-19.8335c-.03095-.3826-.20461-.7396-.48652-1.0002-.2819-.2606-.65145-.4056-1.03533-.4065h-1.11055c-.21524 0-.42801-.0459-.62418-.1345s-.37125-.2179-.51362-.3793-.24878-.3513-.31216-.557-.08228-.4225-.05544-.6361l1.94551-15.5476c.13842-1.1018.67472-2.115 1.50797-2.8491.83325-.734 1.90602-1.1382 3.01647-1.1366h7.48174c.3868.0071.7711.0638 1.1435.1687.1928.051.3938.0636.5915.037.1977-.0267.3882-.092.5606-.1923.1725-.1002.3235-.2335.4444-.3921.121-.1586.2095-.3395.2606-.5323.051-.1928.0636-.3938.0369-.5915-.0266-.1977-.0919-.3882-.1922-.5607-.1002-.1724-.2335-.3234-.3921-.4444-.1586-.1209-.3395-.2094-.5323-.2605-.6241-.175-1.2686-.2663-1.9167-.2715h-7.49828c-1.84781.0035-3.63099.6804-5.01573 1.9039-1.38473 1.2234-2.27609 2.9097-2.50718 4.743l-1.9496272 15.5476c-.0751882.615-.02418723 1.2388.1498862 1.8335.174074.5946.467564 1.1475.862541 1.6248.39497.4774.88313.8692 1.43464 1.1515.55152.2823 1.15481.4492 1.773.4905l1.41903 19.8376c.02706.383.19827.7415.47914 1.0033.28088.2618.65053.4074 1.03449.4075h12.14609c.3837-.0011.7528-.147 1.0335-.4086.2806-.2616.4521-.6196.4801-1.0022l1.1681-16.3456c.0272-.4005-.1049-.7955-.3676-1.0991-.2627-.3035-.6347-.4909-1.0349-.5215"/><path d="m13.2528 6.07574c.9007 0 1.7812.26715 2.5301.76764.7488.5005 1.3324 1.21186 1.6769 2.0441.3445.83223.4344 1.74792.2584 2.63132-.176.8833-.6101 1.6946-1.2473 2.3312-.6371.6367-1.4488 1.07-2.3323 1.2452-.8836.1752-1.7992.0845-2.6311-.2608-.8319-.3452-1.54277-.9295-2.04259-1.6788s-.76617-1.63-.76536-2.5307c.00218-1.20659.48272-2.36303 1.33625-3.2158.8536-.85278 2.0104-1.33227 3.217-1.33336zm0 12.13786c1.5009 0 2.9681-.4451 4.2161-1.2789 1.2479-.8339 2.2206-2.0191 2.795-3.4058.5743-1.3866.7246-2.9125.4318-4.38453-.2928-1.47207-1.0156-2.82425-2.0769-3.88555s-2.4135-1.78406-3.8855-2.07687c-1.4721-.29281-2.9979-.14253-4.3846.43184-1.38665.57438-2.57185 1.54704-3.40571 2.795s-1.27893 2.71516-1.27893 4.21611c.00218 2.0119.8024 3.9409 2.22509 5.3636s3.35165 2.2229 5.36365 2.2251z"/><path d="m44.3442 45.1988c-.1384.1601-.3086.2897-.4998.3803-.1912.0907-.3992.1404-.6108.1462h-1.1558c-.3826-.0001-.7511.1443-1.0318.4044s-.4528.6166-.4818.9981l-1.674 22.6675h-9.3163l-1.6699-22.6675c-.03-.3812-.2023-.7371-.4828-.997s-.6485-.4047-1.0308-.4055h-1.1517c-.2122-.0055-.4209-.0551-.6129-.1457-.1919-.0907-.3628-.2204-.5018-.3808-.1928-.2245-.3364-.4869-.4214-.7703s-.1096-.5815-.0721-.875l2.0072-17.6371c.3084-2.6694 2.3321-4.6766 4.7259-4.6766h7.741c2.3897 0 4.4175 2.0072 4.7259 4.6766l2.0031 17.6289c.0356.2937.0098.5917-.0759.8749-.0857.2833-.2293.5456-.4218.7703zm3.5002-2.0031-2.0154-17.6207c-.473-4.2036-3.8046-7.3748-7.7327-7.3748h-7.7409c-3.9239.0082-7.2514 3.1918-7.7327 7.3831l-2.0113 17.6083c-.0866.7182-.0215 1.4466.191 2.1381.2126.6915.5679 1.3307 1.043 1.8763.3921.4492.8697.8159 1.405 1.0786.5352.2627 1.1175.4161 1.7127.4515l1.6782 22.6756c.0261.3823.1966.7403.4769 1.0015.2803.2613.6494.4061 1.0326.4052h12.1584c.3836.001.7532-.1437 1.0342-.4048.281-.2612.4523-.6192.4794-1.0019l1.6741-22.6756c.5954-.0345 1.1779-.1875 1.7133-.4503s1.0129-.6299 1.4044-1.0798c.4766-.5446.8329-1.1837 1.0456-1.8755.2126-.6918.2768-1.4206.1884-2.1389"/><path d="m34.2311 3.0396c.9009-.00081 1.7818.26565 2.5312.76565s1.3336 1.21108 1.6788 2.04324c.3451.83216.4356 1.74801.26 2.63163-.1755.88362-.6092 1.69528-1.2463 2.33238-.637.637-1.4487 1.0707-2.3323 1.2463-.8836.1755-1.7995.085-2.6316-.2601-.8322-.3451-1.5433-.9294-2.0433-1.6788-.5-.74939-.7664-1.63028-.7656-2.53118.0021-1.20583.4821-2.36165 1.3348-3.21431.8526-.85265 2.0085-1.33263 3.2143-1.33481zm0 12.1378c1.5011.0009 2.9687-.4435 4.2172-1.2769 1.2485-.8333 2.2218-2.0183 2.7968-3.4048.575-1.38663.7259-2.9126.4335-4.38494-.2923-1.47234-1.0148-2.8249-2.0759-3.88662-1.0611-1.06171-2.4133-1.784874-3.8855-2.07802s-2.9982-.14310461-4.3851.431147c-1.3869.574253-2.5724 1.546913-3.4064 2.794963s-1.2792 2.71541-1.2792 4.21649c.0032 2.01095.8033 3.93868 2.2248 5.36098 1.4216 1.4223 3.3489 2.2234 5.3598 2.2277z"/></g></svg>

<svg width="69" height="73" viewBox="0 0 69 73" fill="none" xmlns="http://www.w3.org/2000/svg">
<path d="M55.7333 6.07574C56.634 6.07574 57.5145 6.34289 58.2633 6.84338C59.0122 7.34388 59.5958 8.05524 59.9403 8.88748C60.2848 9.71971 60.3747 10.6354 60.1987 11.5188C60.0227 12.4021 59.5886 13.2134 58.9514 13.85C58.3142 14.4867 57.5025 14.92 56.619 15.0952C55.7355 15.2704 54.8199 15.1797 53.988 14.8344C53.156 14.4892 52.4452 13.9049 51.9454 13.1556C51.4456 12.4063 51.1792 11.5256 51.18 10.6249C51.1822 9.41831 51.6627 8.26187 52.5163 7.4091C53.3698 6.55632 54.5267 6.07683 55.7333 6.07574ZM55.7333 18.2136C57.2342 18.2136 58.7014 17.7685 59.9493 16.9347C61.1973 16.1008 62.1699 14.9156 62.7443 13.5289C63.3187 12.1423 63.469 10.6164 63.1762 9.14437C62.8833 7.6723 62.1606 6.32012 61.0993 5.25882C60.038 4.19752 58.6858 3.47476 57.2137 3.18195C55.7417 2.88914 54.2158 3.03942 52.8292 3.61379C51.4425 4.18817 50.2573 5.16083 49.4235 6.40879C48.5896 7.65675 48.1445 9.12395 48.1445 10.6249C48.1467 12.6368 48.9469 14.5658 50.3696 15.9885C51.7923 17.4112 53.7213 18.2114 55.7333 18.2136Z" fill="white"/>
<path d="M68.9444 43.4435L66.9989 27.8958C66.7686 26.0622 65.8775 24.3755 64.4926 23.1518C63.1077 21.9282 61.324 21.2516 59.476 21.249H51.9818C51.1204 21.2511 50.2659 21.4028 49.4564 21.6974C49.0943 21.8442 48.8028 22.125 48.6425 22.4813C48.4822 22.8376 48.4656 23.242 48.5959 23.6103C48.7263 23.9786 48.9937 24.2825 49.3424 24.4586C49.6912 24.6348 50.0944 24.6696 50.4682 24.556C50.9536 24.3798 51.4655 24.288 51.9818 24.2845H59.476C60.5862 24.2838 61.6585 24.6883 62.4915 25.4221C63.3246 26.156 63.8611 27.1687 64.0004 28.2701L65.9418 43.8178C65.97 44.0312 65.9521 44.2482 65.8895 44.4542C65.8269 44.6602 65.7209 44.8504 65.5787 45.0121C65.4365 45.1738 65.2614 45.3032 65.0651 45.3916C64.8688 45.48 64.6558 45.5254 64.4405 45.5247H63.3259C62.9423 45.5238 62.5726 45.6685 62.2916 45.9296C62.0107 46.1907 61.8393 46.5488 61.8122 46.9314L60.3932 66.7649H51.0728L49.9829 51.4805C49.9729 51.2787 49.9227 51.081 49.8354 50.8989C49.748 50.7167 49.6251 50.5539 49.4739 50.4198C49.3228 50.2858 49.1464 50.1833 48.9551 50.1183C48.7638 50.0533 48.5615 50.0272 48.36 50.0414C48.1585 50.0557 47.9618 50.11 47.7816 50.2012C47.6013 50.2925 47.4411 50.4187 47.3103 50.5727C47.1795 50.7267 47.0808 50.9052 47.0199 51.0978C46.9589 51.2904 46.9371 51.4932 46.9556 51.6944L48.1484 68.3855C48.1773 68.7678 48.3491 69.1252 48.6296 69.3866C48.91 69.648 49.2786 69.7943 49.662 69.7963H61.7999C62.1827 69.7962 62.5514 69.651 62.8315 69.39C63.1116 69.129 63.2823 68.7715 63.3094 68.3896L64.7284 48.5396C65.347 48.4979 65.9507 48.3304 66.5023 48.0473C67.0539 47.7643 67.542 47.3716 67.9367 46.8934C68.3313 46.4152 68.6243 45.8615 68.7975 45.2662C68.9708 44.6709 69.0208 44.0464 68.9444 43.4311" fill="white"/>
<path d="M20.5993 50.4186C20.4 50.4023 20.1994 50.4262 20.0095 50.4888C19.8195 50.5513 19.644 50.6513 19.4934 50.7828C19.3427 50.9143 19.2199 51.0747 19.1322 51.2544C19.0445 51.4342 18.9937 51.6297 18.9829 51.8294L17.9135 66.7641H8.59722L7.18641 46.9306C7.15546 46.548 6.9818 46.191 6.69989 45.9304C6.41799 45.6698 6.04844 45.5248 5.66456 45.5239H4.55401C4.33877 45.5239 4.126 45.478 3.92983 45.3894C3.73366 45.3008 3.55858 45.1715 3.41621 45.0101C3.27384 44.8487 3.16743 44.6588 3.10405 44.4531C3.04067 44.2474 3.02177 44.0306 3.04861 43.817L4.99412 28.2694C5.13254 27.1676 5.66884 26.1544 6.50209 25.4203C7.33534 24.6863 8.40811 24.2821 9.51856 24.2837H17.0003C17.3871 24.2908 17.7714 24.3475 18.1438 24.4524C18.3366 24.5034 18.5376 24.516 18.7353 24.4894C18.933 24.4627 19.1235 24.3974 19.2959 24.2971C19.4684 24.1969 19.6194 24.0636 19.7403 23.905C19.8613 23.7464 19.9498 23.5655 20.0009 23.3727C20.0519 23.1799 20.0645 22.9789 20.0378 22.7812C20.0112 22.5835 19.9459 22.393 19.8456 22.2205C19.7454 22.0481 19.6121 21.8971 19.4535 21.7761C19.2949 21.6552 19.114 21.5667 18.9212 21.5156C18.2971 21.3406 17.6526 21.2493 17.0045 21.2441H9.50622C7.65841 21.2476 5.87523 21.9245 4.49049 23.148C3.10576 24.3714 2.2144 26.0577 1.98331 27.891L0.0336828 43.4386C-0.0415054 44.0536 0.00949557 44.6774 0.183569 45.2721C0.357643 45.8667 0.651133 46.4196 1.04611 46.8969C1.44108 47.3743 1.92924 47.7661 2.48075 48.0484C3.03227 48.3307 3.63556 48.4976 4.25375 48.5389L5.67278 68.3765C5.69984 68.7595 5.87105 69.118 6.15192 69.3798C6.4328 69.6416 6.80245 69.7872 7.18641 69.7873H19.3325C19.7162 69.7862 20.0853 69.6403 20.366 69.3787C20.6466 69.1171 20.8181 68.7591 20.8461 68.3765L22.0142 52.0309C22.0414 51.6304 21.9093 51.2354 21.6466 50.9318C21.3839 50.6283 21.0119 50.4409 20.6117 50.4103" fill="white"/>
<path d="M13.2528 6.07574C14.1535 6.07574 15.034 6.34289 15.7829 6.84338C16.5317 7.34388 17.1153 8.05524 17.4598 8.88748C17.8043 9.71971 17.8942 10.6354 17.7182 11.5188C17.5422 12.4021 17.1081 13.2134 16.4709 13.85C15.8338 14.4867 15.0221 14.92 14.1386 15.0952C13.255 15.2704 12.3394 15.1797 11.5075 14.8344C10.6756 14.4892 9.96473 13.9049 9.46491 13.1556C8.96509 12.4063 8.69874 11.5256 8.69955 10.6249C8.70173 9.41831 9.18227 8.26187 10.0358 7.4091C10.8894 6.55632 12.0462 6.07683 13.2528 6.07574ZM13.2528 18.2136C14.7537 18.2136 16.2209 17.7685 17.4689 16.9347C18.7168 16.1008 19.6895 14.9156 20.2639 13.5289C20.8382 12.1423 20.9885 10.6164 20.6957 9.14437C20.4029 7.6723 19.6801 6.32012 18.6188 5.25882C17.5575 4.19752 16.2053 3.47476 14.7333 3.18195C13.2612 2.88914 11.7354 3.03942 10.3487 3.61379C8.96205 4.18817 7.77685 5.16083 6.94299 6.40879C6.10913 7.65675 5.66406 9.12395 5.66406 10.6249C5.66624 12.6368 6.46646 14.5658 7.88915 15.9885C9.31184 17.4112 11.2408 18.2114 13.2528 18.2136Z" fill="white"/>
<path d="M44.3442 45.1988C44.2058 45.3589 44.0356 45.4885 43.8444 45.5791C43.6532 45.6698 43.4452 45.7195 43.2336 45.7253H42.0778C41.6952 45.7252 41.3267 45.8696 41.046 46.1297C40.7653 46.3898 40.5932 46.7463 40.5642 47.1278L38.8902 69.7953H29.5739L27.904 47.1278C27.874 46.7466 27.7017 46.3907 27.4212 46.1308C27.1407 45.8709 26.7727 45.7261 26.3904 45.7253H25.2387C25.0265 45.7198 24.8178 45.6702 24.6258 45.5796C24.4339 45.4889 24.263 45.3592 24.124 45.1988C23.9312 44.9743 23.7876 44.7119 23.7026 44.4285C23.6176 44.1451 23.593 43.847 23.6305 43.5535L25.6377 25.9164C25.9461 23.247 27.9698 21.2398 30.3636 21.2398H38.1046C40.4943 21.2398 42.5221 23.247 42.8305 25.9164L44.8336 43.5453C44.8692 43.839 44.8434 44.137 44.7577 44.4202C44.672 44.7035 44.5284 44.9658 44.3359 45.1905L44.3442 45.1988ZM47.8444 43.1957L45.829 25.575C45.356 21.3714 42.0244 18.2002 38.0963 18.2002H30.3554C26.4315 18.2084 23.104 21.392 22.6227 25.5833L20.6114 43.1916C20.5248 43.9098 20.5899 44.6382 20.8024 45.3297C21.015 46.0212 21.3703 46.6604 21.8454 47.206C22.2375 47.6552 22.7151 48.0219 23.2504 48.2846C23.7856 48.5473 24.3679 48.7007 24.9631 48.7361L26.6413 71.4117C26.6674 71.794 26.8379 72.152 27.1182 72.4132C27.3985 72.6745 27.7676 72.8193 28.1508 72.8184H40.3092C40.6928 72.8194 41.0624 72.6747 41.3434 72.4136C41.6244 72.1524 41.7957 71.7944 41.8228 71.4117L43.4969 48.7361C44.0923 48.7016 44.6748 48.5486 45.2102 48.2858C45.7456 48.023 46.2231 47.6559 46.6146 47.206C47.0912 46.6614 47.4475 46.0223 47.6602 45.3305C47.8728 44.6387 47.937 43.9099 47.8486 43.1916" fill="white"/>
<path d="M34.2311 3.0396C35.132 3.03879 36.0129 3.30525 36.7623 3.80525C37.5117 4.30525 38.0959 5.01633 38.4411 5.84849C38.7862 6.68065 38.8767 7.5965 38.7011 8.48012C38.5256 9.36374 38.0919 10.1754 37.4548 10.8125C36.8178 11.4495 36.0061 11.8832 35.1225 12.0588C34.2389 12.2343 33.323 12.1438 32.4909 11.7987C31.6587 11.4536 30.9476 10.8693 30.4476 10.1199C29.9476 9.37051 29.6812 8.48962 29.682 7.58872C29.6841 6.38289 30.1641 5.22707 31.0168 4.37441C31.8694 3.52176 33.0253 3.04178 34.2311 3.0396ZM34.2311 15.1774C35.7322 15.1783 37.1998 14.7339 38.4483 13.9005C39.6968 13.0672 40.6701 11.8822 41.2451 10.4957C41.8201 9.10907 41.971 7.5831 41.6786 6.11076C41.3863 4.63842 40.6638 3.28586 39.6027 2.22414C38.5416 1.16243 37.1894 0.439266 35.7172 0.14612C34.245 -0.147026 32.719 0.00301539 31.3321 0.577267C29.9452 1.15152 28.7597 2.12418 27.9257 3.37223C27.0917 4.62028 26.6465 6.08764 26.6465 7.58872C26.6497 9.59967 27.4498 11.5274 28.8713 12.9497C30.2929 14.372 32.2202 15.1731 34.2311 15.1774Z" fill="white"/>
</svg>
